X:1
T:Maid of the Mill
O:Stanton Harcourt
R:reel
M:6/8
L:1/8
K:G
P:A
D|D2G GFG|ABc B2A|GFE DEF|G3 G2:|
B/c/|d2d d>cB|cAB c2c|ABc dBA|G3 F2D|
D2G GFG|ABc B2A|GFE DEF|G3 G2|]
</abc>
